X: 21
T: Lady of the Lake
R: reel
Z: 2017 John Chambers <jc:trillian.mit.edu>
S: handout at Roaring Jelly practice Jan 2017
S: Portland Collection v.3 p.114
M: C|
L: 1/8
K: D
FG |\
"D"AGFE DEFG | AGFE D2FE | DFA2 f3g | "A7"f2e2- e2cd || "A7"edcB ABcd |
edcB A2cB | ABAG FDE2 | "D"D3E D2 :: FE | "D"D2F2 Acd2 | f3g f2dB |
ABdB AGF2 | "A7"E3F E2CB, || "A7"A,2C2 EFA2 | f2e2- e2cB | ABcB AFE2 | "D"D3E D2 :|

%%sep 1 1 500

